X: 1
T:Molly Bawn
R:reel
H:Also in Gmix, #703
D:Mary Bergin: Feadoga Stain
Z:id:hn-reel-380
M:C|
K:Amix
A2EA (3Bce ed|BG~G2 eGdG|EA (3Bce a2ed|1 (3Bce dB BAAG:|2 (3Bce dB BA~A2||
a2ea ~a2ba|g2ef ~g3b|a2ea ~a2ba|gedB EA~A2|
a2ea ~a2ba|g2ef ~g3a|~b3a gbag|gedB eBdB||
